X: 111488
T: Kerry Cow
T: Bh\'o Chiarra\'ioch
S: B.Breathnach: "Ceol Rince na hEireann" II/116 
Z: B.Black
L: 1/8
M: 2/4
R: polka
K: D
AB AG|FA d2|GA GF|EF GE|
A2 A/B/A/G/|FA de/d/|cA GE|D2 D2 :|
de fe/d/|cA A2|BG G/F/G/A/|BA A2|
d/c/d/e/ fe/d/|cA AB|(3cBA GE|D2 D2 :|
